X:1
T:Speed the Plough [3]
T:Speed the Plow
M:C|
L:1/8
N:Learned from the playing of Bob Beers who had it from
N:his maternal grandfather, George Sullivan (Wisconsin)
Z:AK/Fiddler's Companion
R:Reel
K:A
cd|"A"e3 c3A|"E"BABc A3e|"D"fefg afed|"E"cB- B2 B2|
"A"e4 c3A|"E"BABc A3e|"D"fefg afed|"E"cA B2 "A"A2 :|
|:cd|"A"e2ee "D"fedf|"A"e2e2 "D"f3e|fefg afed|"E"cB-B2 B2 cd|
"A"e2 ee "D"fedf|"A"e2e2 "D"f4|fefg afed|"E"cA B2 "A"A:|]

